icon-themes/sifr_svg/cmd/sc_convertinto3d.svg

<svg viewBox="0 0 16 16" xmlns="http://www.w3.org/2000/svg"><path d="m5 0-4 4v2h2 7v7 2h2l4-4v-11zm.828125 2h6.757813l-2 2h-6.757813zm8.171875 1.4140625v6.7578125l-2 2v-6.7578125zm-14 4.5859375v1c0 2.209139 1.790861 4 4 4h1.8222656l-1.5097656 1.28125c-.18267.19029-.3125.46186-.3125.71875v1h.4140625.5859375c.30945 0 .55232-.09029.75-.28125l3.25-2.84375v-1.705078c-1.083465-.958134-2.166532-2.0680429-3.25-2.888672-.19768-.19095-.44055-.28125-.75-.28125h-.5859375-.4140625v1c0 .2568898.12983.52846.3125.71875l1.5097656 1.28125h-1.8222656c-1.104569 0-2-.895431-2-2v-1z" fill="#555753"/></svg>

<svg xmlns="http://www.w3.org/2000/svg" viewBox="0 0 16 16">
  <path
     style="fill:#555753"
     d="M 5 0 L 1 4 L 1 6 L 3 6 L 10 6 L 10 13 L 10 15 L 12 15 L 16 11 L 16 0 L 5 0 z M 5.828125 2 L 12.585938 2 L 10.585938 4 L 3.828125 4 L 5.828125 2 z M 14 3.4140625 L 14 10.171875 L 12 12.171875 L 12 5.4140625 L 14 3.4140625 z M 0 8 L 0 9 C 0 11.209139 1.790861 13 4 13 L 5.8222656 13 L 4.3125 14.28125 C 4.12983 14.47154 4 14.74311 4 15 L 4 16 L 4.4140625 16 L 5 16 C 5.30945 16 5.55232 15.90971 5.75 15.71875 L 9 12.875 L 9 11.169922 C 7.916535 10.211788 6.833468 9.1018791 5.75 8.28125 C 5.55232 8.0903 5.30945 8 5 8 L 4.4140625 8 L 4 8 L 4 9 C 4 9.2568898 4.12983 9.52846 4.3125 9.71875 L 5.8222656 11 L 4 11 C 2.895431 11 2 10.104569 2 9 L 2 8 L 0 8 z "
     />
</svg>
